X: 7
T:Cuckoo's Nest, Ilmington 3
M:4/4
L:1/8
R:Hornpipe
A:Ilmington
P:A(AB2)4A
K:G
P:A
|:BcBA G2g2|BcBA G2g2|BcBA GABc|B2G2 G4 :|
P:B
|:c2c2 c4  |B2A2 A3B |c2c2 c2dc|B2G2 G3B:|
